assets/symbols/mulberry/lampshade.svg

<svg height="850.394" viewBox="0 0 850.394 850.394" width="850.394" xmlns="http://www.w3.org/2000/svg"><path d="m727.96 685.277v.01h-225.637l.01-.01z" fill="#eedceb"/><path d="m425.744 747.684c-37.769 0-69.283-26.789-76.58-62.396h153.16c-7.298 35.607-38.803 62.396-76.58 62.396z" fill="#fbee34"/><path d="m349.154 685.277h153.179l-.01.01h-153.16zm76.59-93.948c-43.172 0-78.177 35.005-78.177 78.177 0 5.404.545 10.684 1.588 15.771h-225.465l141.166-423.507h321.929l141.175 423.507h-225.627a78.579 78.579 0 0 0 1.588-15.771c0-43.172-34.995-78.177-78.177-78.177z" fill="#eedceb"/><path d="m502.333 685.277h-153.179a78.579 78.579 0 0 1 -1.588-15.771c0-43.172 35.005-78.177 78.177-78.177 43.182 0 78.177 35.005 78.177 78.177a78.506 78.506 0 0 1 -1.587 15.771zm-330.909 0h177.73l.009.01h-225.473v-.01z" fill="#eedceb"/><g fill="none"><g stroke="#231f20"><path d="m502.323 685.287c-7.297 35.607-38.802 62.396-76.58 62.396-37.769 0-69.283-26.789-76.58-62.396" stroke-width="13.39"/><g stroke-width="33.474"><path d="m727.96 685.277h-604.27m47.734.01h556.536v-.01l-141.176-423.507h-321.928l-141.166 423.507v.01z" stroke-linecap="round" stroke-linejoin="round"/><path d="m425.036 261.77v-211.75"/></g></g><path d="m0 0h850.394v850.394h-850.394z"/></g></svg>

<svg xmlns="http://www.w3.org/2000/svg" width="850.394" height="850.394" viewBox="0 0 850.394 850.394" overflow="visible"><path d="M727.96 685.277v.01H502.323l.01-.01H727.96z" fill="#eedceb"/><path d="M425.744 747.684c-37.769 0-69.283-26.789-76.58-62.396h153.16c-7.298 35.607-38.803 62.396-76.58 62.396z" fill="#fbee34"/><path d="M349.154 685.277h153.179l-.01.01h-153.16l-.009-.01zM425.744 591.329c-43.172 0-78.177 35.005-78.177 78.177 0 5.404.545 10.684 1.588 15.771H123.69L264.856 261.77h321.929L727.96 685.277H502.333a78.579 78.579 0 0 0 1.588-15.771c0-43.172-34.995-78.177-78.177-78.177z" fill="#eedceb"/><path d="M502.333 685.277H349.154a78.579 78.579 0 0 1-1.588-15.771c0-43.172 35.005-78.177 78.177-78.177 43.182 0 78.177 35.005 78.177 78.177a78.506 78.506 0 0 1-1.587 15.771zM171.424 685.277h177.73l.009.01H123.69v-.01h47.734z" fill="#eedceb"/><g fill="none" stroke="#231f20"><path d="M502.323 685.287c-7.297 35.607-38.802 62.396-76.58 62.396-37.769 0-69.283-26.789-76.58-62.396" stroke-width="13.39"/><path stroke-width="33.474" stroke-linecap="round" stroke-linejoin="round" d="M727.96 685.277H123.69M171.424 685.287H727.96v-.01L586.784 261.77H264.856L123.69 685.277v.01h47.734"/><path stroke-width="33.474" d="M425.036 261.77V50.02"/></g><path fill="none" d="M0 0h850.394v850.394H0z"/></svg>
